icons/compose-24.svg

<svg width="24" height="24" viewBox="0 0 24 24" fill="none" xmlns="http://www.w3.org/2000/svg">
<path d="M1 21.25V4C1 3.53587 1.18451 3.09088 1.5127 2.7627C1.84088 2.43451 2.28587 2.25 2.75 2.25H10.2598C10.674 2.25 11.0098 2.58579 11.0098 3C11.0098 3.41421 10.674 3.75 10.2598 3.75H2.75C2.6837 3.75 2.62013 3.77636 2.57324 3.82324C2.52636 3.87013 2.5 3.9337 2.5 4V21.25C2.5 21.3163 2.52636 21.3799 2.57324 21.4268C2.62013 21.4736 2.68369 21.5 2.75 21.5H20C20.0663 21.5 20.1299 21.4736 20.1768 21.4268C20.2236 21.3799 20.25 21.3163 20.25 21.25V13C20.25 12.5858 20.5858 12.25 21 12.25C21.4142 12.25 21.75 12.5858 21.75 13V21.25C21.75 21.7141 21.5655 22.1591 21.2373 22.4873C20.9091 22.8155 20.4641 23 20 23H2.75C2.28587 23 1.84089 22.8155 1.5127 22.4873C1.18451 22.1591 1 21.7141 1 21.25Z" fill="black"/>
<path fill-rule="evenodd" clip-rule="evenodd" d="M19.013 1.42701C19.3412 1.09909 19.7861 0.914886 20.25 0.914886C20.7139 0.914886 21.1588 1.09909 21.487 1.42701L22.573 2.51301C22.9009 2.84117 23.0851 3.2861 23.0851 3.75001C23.0851 4.21393 22.9009 4.65886 22.573 4.98701L13.963 13.597C13.753 13.807 13.493 13.961 13.207 14.042L9.957 14.971C9.82836 15.0079 9.69219 15.0097 9.56261 14.9763C9.43303 14.9428 9.31477 14.8753 9.22008 14.7807C9.1254 14.6861 9.05775 14.568 9.02415 14.4384C8.99055 14.3089 8.99223 14.1727 9.029 14.044L9.958 10.794C10.04 10.507 10.193 10.247 10.403 10.036L19.013 1.42601V1.42701ZM11.463 11.097C11.4332 11.1271 11.4115 11.1643 11.4 11.205L10.842 13.158L12.795 12.6C12.8359 12.5882 12.873 12.5662 12.903 12.536L19.19 6.25001L17.75 4.81001L11.463 11.097ZM20.427 2.48701C20.4038 2.46373 20.3762 2.44526 20.3458 2.43266C20.3154 2.42005 20.2829 2.41357 20.25 2.41357C20.2171 2.41357 20.1846 2.42005 20.1542 2.43266C20.1238 2.44526 20.0962 2.46373 20.073 2.48701L18.811 3.75001L20.25 5.19001L21.513 3.92701C21.5363 3.90379 21.5548 3.8762 21.5674 3.84583C21.58 3.81546 21.5864 3.7829 21.5864 3.75001C21.5864 3.71713 21.58 3.68457 21.5674 3.6542C21.5548 3.62382 21.5363 3.59624 21.513 3.57301L20.427 2.48701Z" fill="black"/>
</svg>

<svg xmlns="http://www.w3.org/2000/svg" width="24" height="24" viewBox="0 0 24 24"><path d="M1 21.25V4a1.75 1.75 0 0 1 1.75-1.75h7.51a.75.75 0 0 1 0 1.5H2.75A.25.25 0 0 0 2.5 4v17.25a.25.25 0 0 0 .25.25H20a.25.25 0 0 0 .25-.25V13a.75.75 0 0 1 1.5 0v8.25c0 .464-.184.909-.513 1.237A1.746 1.746 0 0 1 20 23H2.75A1.75 1.75 0 0 1 1 21.25Z"/><path d="M19.013 1.427a1.75 1.75 0 0 1 2.474 0l1.086 1.086a1.75 1.75 0 0 1 0 2.474l-8.61 8.61c-.21.21-.47.364-.756.445l-3.25.929a.751.751 0 0 1-.928-.927l.929-3.25c.082-.287.235-.547.445-.758l8.61-8.61Zm-7.55 9.67a.241.241 0 0 0-.063.108l-.558 1.953 1.953-.558a.253.253 0 0 0 .108-.064L19.19 6.25l-1.44-1.44Zm8.964-8.61a.245.245 0 0 0-.177-.073.245.245 0 0 0-.177.073L18.811 3.75l1.439 1.44 1.263-1.263a.245.245 0 0 0 .073-.177.245.245 0 0 0-.073-.177Z"/></svg>
